Waiting for printer boot
start
echo:Marlin 1.0.0
echo: Last Updated: Oct  7 2016 08:56:29 | Author: (none, default config)
Compiled: Oct  7 2016
echo: Free Memory: 3892  PlannerBufferBytes: 1232
echo:Stored settings retrieved
echo:Steps per unit:
echo:  M92 X80.00 Y80.00 Z395.60 E94.30
echo:Maximum feedrates (mm/s):
echo:  M203 X450.00 Y450.00 Z5.00 E25.00
echo:Maximum Acceleration (mm/s2):
echo:  M201 X3000 Y3000 Z100 E3000
echo:Acceleration: S=acceleration, T=retract acceleration
echo:  M204 S800.00 T800.00
echo:Advanced variables: S=Min feedrate (mm/s), T=Min travel feedrate (mm/s), B=minimum segment time (ms), X=maximum XY jerk (mm/s),  Z=maximum Z jerk (mm/s),  E=maximum E jerk (mm/s)
echo:  M205 S0.00 T0.00 B20000 X10.00 Z0.40 E1.00
echo:Home offset (mm):
echo:  M206 X0.00 Y0.00 Z0.00
echo:PID settings:
echo:   M301 P33.00 I1.00 D-67.00
echo:SD init fail

Setting coordinate system to absolute
G90
ok
Homing the printer
G0 Z10
ok
G28
ok
G0 F12000.0 Z10.0
ok
Load calibration data from file? (Y/n) n
Enter a value for X or Y
Leave empty to reuse it
Enter # to signal done with this corner
Specify lower left corner
X (0.0): 32
Y (0.0): 2
G0 X32.0 Y2.0
ok
X (32.0): 
Y (2.0): 4
G0 X32.0 Y4.0
ok
X (32.0): 
Y (4.0): 6
G0 X32.0 Y6.0
ok
X (32.0): 31
Y (6.0): 
G0 X31.0 Y6.0
ok
X (31.0): #
Specify upper left corner
X (31.0): 
Y (6.0): 190
G0 X31.0 Y190.0
ok
X (31.0): 
Y (190.0): 200
G0 X31.0 Y200.0
ok
X (31.0): 33
Y (200.0): 
G0 X33.0 Y200.0
ok
X (33.0): 35
Y (200.0): 
G0 X35.0 Y200.0
ok
X (35.0): #
Specify upper right corner
X (35.0): 190
Y (200.0): 
G0 X190.0 Y200.0
ok
X (190.0): 
Y (200.0): 198
G0 X190.0 Y198.0
ok
X (190.0): #
Specify lower right corner
X (190.0): 
Y (198.0): 5
G0 X190.0 Y5.0
ok
X (190.0): 188
Y (5.0): 
G0 X188.0 Y5.0
ok
X (188.0): #
Enter a height for the following points
Enter # to signal done with this point
Specify (31.0,6.0) height
G0 Z10.0
ok
G0 X31.0 Y6.0
ok
Z (10.0): 5
G0 Z5.0
ok
Z (5.0): 3
G0 Z3.0
ok
Z (3.0): 4
G0 Z4.0
ok
Z (4.0): 3
G0 Z3.0
ok
Z (3.0): 2
G0 Z2.0
ok
Z (2.0): 1
G0 Z1.0
ok
Z (1.0): 1.5
G0 Z1.5
ok
Z (1.5): #
Specify (35.0,200.0) height
G0 Z10.0
ok
G0 X35.0 Y200.0
ok
Z (10.0): 2
G0 Z2.0
ok
Z (2.0): 2.5
G0 Z2.5
ok
Z (2.5): 2
G0 Z2.0
ok
Z (2.0): #
Specify (190.0,198.0) height
G0 Z10.0
ok
G0 X190.0 Y198.0
ok
Z (10.0): 2
G0 Z2.0
ok
Z (2.0): 1.7
G0 Z1.7
ok
Z (1.7): #
Specify (188.0,5.0) height
G0 Z10.0
ok
G0 X188.0 Y5.0
ok
Z (10.0): 2
G0 Z2.0
ok
Z (2.0): 1.6
G0 Z1.6
ok
Z (1.6): 1.5
G0 Z1.5
ok
Z (1.5): 1.4
G0 Z1.4
ok
Z (1.4): #
Specify (111.0,102.2) height
G0 Z10.0
ok
G0 X111.0 Y102.2
ok
Z (10.0): 3
G0 Z3.0
ok
Z (3.0): 4
G0 Z4.0
ok
Z (4.0): 3.5
G0 Z3.5
ok
Z (3.5): 3.2
G0 Z3.2
ok
Z (3.2): 3.1
G0 Z3.1
ok
Z (3.1): 3
G0 Z3.0
ok
Z (3.0): #
Save calibration data to file? (Y/n) 
File name: points.txt
G0 F3000.0 Z20.0
ok
M400
ok
Heating up to 145C
M109 R145
T:24.4 E:0 W:?
T:24.5 E:0 W:?
T:24.6 E:0 W:?
T:25.0 E:0 W:?
T:25.4 E:0 W:?
T:26.6 E:0 W:?
T:28.2 E:0 W:?
T:29.2 E:0 W:?
T:31.2 E:0 W:?
T:32.8 E:0 W:?
T:34.9 E:0 W:?
T:37.3 E:0 W:?
T:39.6 E:0 W:?
T:41.6 E:0 W:?
T:43.9 E:0 W:?
T:46.0 E:0 W:?
T:48.7 E:0 W:?
T:51.0 E:0 W:?
T:53.3 E:0 W:?
T:55.8 E:0 W:?
T:58.2 E:0 W:?
T:60.8 E:0 W:?
T:62.9 E:0 W:?
T:65.3 E:0 W:?
T:67.5 E:0 W:?
T:69.9 E:0 W:?
T:72.5 E:0 W:?
T:74.9 E:0 W:?
T:77.0 E:0 W:?
T:79.2 E:0 W:?
T:81.4 E:0 W:?
T:84.0 E:0 W:?
T:86.1 E:0 W:?
T:88.3 E:0 W:?
T:90.4 E:0 W:?
T:92.5 E:0 W:?
T:94.9 E:0 W:?
T:96.9 E:0 W:?
T:99.1 E:0 W:?
T:101.2 E:0 W:?
T:103.3 E:0 W:?
T:105.5 E:0 W:?
T:107.6 E:0 W:?
T:109.6 E:0 W:?
T:111.7 E:0 W:?
T:113.7 E:0 W:?
T:115.8 E:0 W:?
T:117.8 E:0 W:?
T:119.8 E:0 W:?
T:121.8 E:0 W:?
T:123.6 E:0 W:?
T:125.8 E:0 W:?
T:127.5 E:0 W:?
T:129.6 E:0 W:?
T:131.4 E:0 W:?
T:133.2 E:0 W:?
T:135.1 E:0 W:?
T:137.2 E:0 W:?
T:138.8 E:0 W:?
T:140.6 E:0 W:?
T:142.4 E:0 W:?
T:144.5 E:0 W:9
T:146.1 E:0 W:8
T:147.9 E:0 W:7
T:149.4 E:0 W:9
T:150.7 E:0 W:9
T:152.0 E:0 W:9
T:152.9 E:0 W:9
T:153.8 E:0 W:9
T:154.3 E:0 W:9
T:154.8 E:0 W:9
T:154.9 E:0 W:9
T:155.3 E:0 W:9
T:155.0 E:0 W:9
T:155.1 E:0 W:9
T:154.8 E:0 W:9
T:154.7 E:0 W:9
T:154.5 E:0 W:9
T:154.0 E:0 W:9
T:153.7 E:0 W:9
T:153.2 E:0 W:9
T:152.9 E:0 W:9
T:152.3 E:0 W:9
T:152.1 E:0 W:9
T:151.5 E:0 W:9
T:151.0 E:0 W:9
T:150.7 E:0 W:9
T:150.0 E:0 W:9
T:149.6 E:0 W:9
T:148.9 E:0 W:9
T:148.6 E:0 W:9
T:147.9 E:0 W:8
T:147.4 E:0 W:7
T:146.8 E:0 W:5
T:146.6 E:0 W:4
T:145.8 E:0 W:3
T:145.4 E:0 W:2
T:144.9 E:0 W:1
T:144.4 E:0 W:0
ok
G0 F3000.0 X34.2 Y11.4
ok
G0 F11994.0 Z1.6
ok
G0 X35.3 Y65.3 Z1.7
ok
G0 Z20.0
ok
G0 F3000.0 X38.3 Y11.3
ok
G0 F11040.0 Z1.6
ok
G0 X39.4 Y65.2 Z1.8
ok
G0 Z20.0
ok
G0 F3000.0 X42.5 Y11.3
ok
G0 F10086.0 Z1.6
ok
G0 X43.5 Y65.2 Z1.8
ok
G0 Z20.0
ok
G0 F3000.0 X46.6 Y11.3
ok
G0 F9132.0 Z1.6
ok
G0 X47.7 Y65.1 Z1.9
ok
G0 Z20.0
ok
G0 F3000.0 X50.7 Y11.3
ok
G0 F8178.0 Z1.6
ok
G0 X51.8 Y65.1 Z2.0
ok
G0 Z20.0
ok
G0 F3000.0 X54.9 Y11.2
ok
G0 F7224.0 Z1.6
ok
G0 X55.9 Y65.1 Z2.0
ok
G0 Z20.0
ok
G0 F3000.0 X59.0 Y11.2
ok
G0 F6270.0 Z1.6
ok
G0 X60.0 Y65.0 Z2.4
ok
G0 Z20.0
ok
G0 F3000.0 X63.1 Y11.2
ok
G0 F5316.0 Z1.6
ok
G0 X64.1 Y65.0 Z2.4
ok
G0 Z20.0
ok
G0 F3000.0 X67.2 Y11.2
ok
G0 F4362.0 Z1.6
ok
G0 X68.2 Y65.0 Z2.4
ok
G0 Z20.0
ok
G0 F3000.0 X71.4 Y11.1
ok
G0 F3408.0 Z1.6
ok
G0 X72.3 Y64.9 Z2.4
ok
G0 Z20.0
ok
G0 F3000.0 X75.5 Y11.1
ok
G0 F2454.0 Z1.6
ok
G0 X76.5 Y64.9 Z2.4
ok
G0 Z20.0
ok
G0 F3000.0 X79.6 Y11.1
ok
G0 F1500.0 Z1.6
ok
G0 X80.6 Y64.9 Z2.4
ok
G0 Z20.0
ok
G0 F3000.0 Z20.0
ok
M400
ok
Heating up to 150C
M109 R150
T:141.8 E:0 W:?
T:142.4 E:0 W:?
T:143.1 E:0 W:?
T:144.0 E:0 W:?
T:144.7 E:0 W:?
T:145.8 E:0 W:?
T:147.1 E:0 W:?
T:148.6 E:0 W:?
T:149.7 E:0 W:9
T:151.2 E:0 W:8
T:152.6 E:0 W:7
T:154.2 E:0 W:9
T:155.4 E:0 W:9
T:156.8 E:0 W:9
T:157.6 E:0 W:9
T:158.6 E:0 W:9
T:159.1 E:0 W:9
T:159.5 E:0 W:9
T:160.0 E:0 W:9
T:160.0 E:0 W:9
T:160.2 E:0 W:9
T:159.9 E:0 W:9
T:159.9 E:0 W:9
T:159.7 E:0 W:9
T:159.5 E:0 W:9
T:159.2 E:0 W:9
T:158.8 E:0 W:9
T:158.1 E:0 W:9
T:157.9 E:0 W:9
T:157.4 E:0 W:9
T:156.7 E:0 W:9
T:156.3 E:0 W:9
T:155.7 E:0 W:9
T:155.4 E:0 W:9
T:154.6 E:0 W:9
T:154.3 E:0 W:9
T:153.5 E:0 W:9
T:153.0 E:0 W:8
T:152.5 E:0 W:7
T:151.9 E:0 W:6
T:151.5 E:0 W:5
T:150.8 E:0 W:4
T:150.2 E:0 W:3
T:149.8 E:0 W:1
T:149.2 E:0 W:0
ok
G0 F3000.0 X86.5 Y11.0
ok
G0 F11994.0 Z1.6
ok
G0 X87.4 Y64.8 Z2.4
ok
G0 Z20.0
ok
G0 F3000.0 X90.7 Y11.0
ok
G0 F11040.0 Z1.5
ok
G0 X91.6 Y64.8 Z2.4
ok
G0 Z20.0
ok
G0 F3000.0 X94.8 Y11.0
ok
G0 F10086.0 Z1.5
ok
G0 X95.7 Y64.7 Z2.4
ok
G0 Z20.0
ok
G0 F3000.0 X98.9 Y10.9
ok
G0 F9132.0 Z1.5
ok
G0 X99.8 Y64.7 Z2.4
ok
G0 Z20.0
ok
G0 F3000.0 X103.0 Y10.9
ok
G0 F8178.0 Z1.5
ok
G0 X103.9 Y64.7 Z2.4
ok
G0 Z20.0
ok
G0 F3000.0 X107.2 Y10.9
ok
G0 F7224.0 Z1.5
ok
G0 X108.0 Y64.6 Z2.4
ok
G0 Z20.0
ok
G0 F3000.0 X111.3 Y10.9
ok
G0 F6270.0 Z2.8
ok
G0 X112.1 Y64.6 Z2.9
ok
G0 Z20.0
ok
G0 F3000.0 X115.4 Y10.8
ok
G0 F5316.0 Z2.8
ok
G0 X116.2 Y64.6 Z2.8
ok
G0 Z20.0
ok
G0 F3000.0 X119.6 Y10.8
ok
G0 F4362.0 Z2.7
ok
G0 X120.4 Y64.5 Z2.8
ok
G0 Z20.0
ok
G0 F3000.0 X123.7 Y10.8
ok
G0 F3408.0 Z2.6
ok
G0 X124.5 Y64.5 Z2.7
ok
G0 Z20.0
ok
G0 F3000.0 X127.8 Y10.8
ok
G0 F2454.0 Z2.5
ok
G0 X128.6 Y64.5 Z2.6
ok
G0 Z20.0
ok
G0 F3000.0 X132.0 Y10.7
ok
G0 F1500.0 Z2.5
ok
G0 X132.7 Y64.4 Z2.5
ok
G0 Z20.0
ok
G0 F3000.0 Z20.0
ok
M400
ok
Heating up to 155C
M109 R155
T:145.5 E:0 W:?
T:145.6 E:0 W:?
T:146.3 E:0 W:?
T:146.9 E:0 W:?
T:147.4 E:0 W:?
T:148.2 E:0 W:?
T:149.4 E:0 W:?
T:150.6 E:0 W:?
T:151.8 E:0 W:?
T:153.3 E:0 W:?
T:154.4 E:0 W:9
T:156.0 E:0 W:8
T:157.6 E:0 W:7
T:159.2 E:0 W:9
T:160.3 E:0 W:9
T:161.7 E:0 W:9
T:162.7 E:0 W:9
T:163.7 E:0 W:9
T:164.6 E:0 W:9
T:164.8 E:0 W:9
T:165.6 E:0 W:9
T:165.3 E:0 W:9
T:165.7 E:0 W:9
T:165.9 E:0 W:9
T:165.5 E:0 W:9
T:165.3 E:0 W:9
T:165.1 E:0 W:9
T:164.7 E:0 W:9
T:164.5 E:0 W:9
T:163.9 E:0 W:9
T:163.6 E:0 W:9
T:163.2 E:0 W:9
T:162.4 E:0 W:9
T:162.1 E:0 W:9
T:161.5 E:0 W:9
T:161.0 E:0 W:9
T:160.5 E:0 W:9
T:159.9 E:0 W:9
T:159.4 E:0 W:9
T:159.0 E:0 W:9
T:158.4 E:0 W:9
T:157.9 E:0 W:8
T:157.3 E:0 W:7
T:156.8 E:0 W:6
T:156.4 E:0 W:5
T:155.7 E:0 W:4
T:155.2 E:0 W:3
T:154.6 E:0 W:2
T:154.2 E:0 W:1
ok
G0 F3000.0 X138.8 Y10.7
ok
G0 F11994.0 Z2.3
ok
G0 X139.6 Y64.4 Z2.4
ok
G0 Z20.0
ok
G0 F3000.0 X143.0 Y10.7
ok
G0 F11040.0 Z2.2
ok
G0 X143.7 Y64.3 Z2.3
ok
G0 Z20.0
ok
G0 F3000.0 X147.1 Y10.6
ok
G0 F10086.0 Z2.2
ok
G0 X147.8 Y64.3 Z2.3
ok
G0 Z20.0
ok
G0 F3000.0 X151.2 Y10.6
ok
G0 F9132.0 Z2.1
ok
G0 X151.9 Y64.3 Z2.2
ok
G0 Z20.0
ok
G0 F3000.0 X155.4 Y10.6
ok
G0 F8178.0 Z2.0
ok
G0 X156.0 Y64.2 Z2.1
ok
G0 Z20.0
ok
G0 F3000.0 X159.5 Y10.5
ok
G0 F7224.0 Z1.9
ok
G0 X160.1 Y64.2 Z2.0
ok
G0 Z20.0
ok
G0 F3000.0 X163.6 Y10.5
ok
G0 F6270.0 Z1.9
ok
G0 X164.3 Y64.2 Z1.9
ok
G0 Z20.0
ok
G0 F3000.0 X167.7 Y10.5
ok
G0 F5316.0 Z1.8
ok
G0 X168.4 Y64.1 Z1.9
ok
G0 Z20.0
ok
G0 F3000.0 X171.9 Y10.5
ok
G0 F4362.0 Z1.7
ok
G0 X172.5 Y64.1 Z1.8
ok
G0 Z20.0
ok
G0 F3000.0 X176.0 Y10.4
ok
G0 F3408.0 Z1.6
ok
G0 X176.6 Y64.1 Z1.7
ok
G0 Z20.0
ok
G0 F3000.0 X180.1 Y10.4
ok
G0 F2454.0 Z1.6
ok
G0 X180.7 Y64.0 Z1.6
ok
G0 Z20.0
ok
G0 F3000.0 X184.3 Y10.4
ok
G0 F1500.0 Z1.5
ok
G0 X184.8 Y64.0 Z1.6
ok
G0 Z20.0
ok
G0 F3000.0 Z20.0
ok
M400
ok
Heating up to 160C
M109 R160
T:150.8 E:0 W:?
T:151.1 E:0 W:?
T:151.6 E:0 W:?
T:152.4 E:0 W:?
T:153.5 E:0 W:?
T:154.6 E:0 W:?
T:155.9 E:0 W:?
T:156.8 E:0 W:?
T:158.2 E:0 W:?
T:159.6 E:0 W:9
T:161.2 E:0 W:8
T:162.9 E:0 W:7
T:164.2 E:0 W:9
T:165.4 E:0 W:9
T:166.7 E:0 W:9
T:167.7 E:0 W:9
T:168.9 E:0 W:9
T:169.2 E:0 W:9
T:169.9 E:0 W:9
T:170.1 E:0 W:9
T:170.3 E:0 W:9
T:170.2 E:0 W:9
T:170.1 E:0 W:9
T:169.8 E:0 W:9
T:169.8 E:0 W:9
T:169.4 E:0 W:9
T:169.1 E:0 W:9
T:168.9 E:0 W:9
T:168.3 E:0 W:9
T:167.8 E:0 W:9
T:167.2 E:0 W:9
T:166.7 E:0 W:9
T:166.2 E:0 W:9
T:165.4 E:0 W:9
T:165.0 E:0 W:9
T:164.3 E:0 W:9
T:163.5 E:0 W:9
T:162.9 E:0 W:8
T:162.4 E:0 W:7
T:161.9 E:0 W:6
T:161.2 E:0 W:5
T:160.6 E:0 W:4
T:160.1 E:0 W:3
T:159.5 E:0 W:2
T:159.1 E:0 W:1
T:158.5 E:0 W:0
ok
G0 F3000.0 X35.5 Y76.0
ok
G0 F11994.0 Z1.7
ok
G0 X36.6 Y129.9 Z1.9
ok
G0 Z20.0
ok
G0 F3000.0 X39.6 Y76.0
ok
G0 F11040.0 Z1.8
ok
G0 X40.7 Y129.9 Z1.9
ok
G0 Z20.0
ok
G0 F3000.0 X43.8 Y76.0
ok
G0 F10086.0 Z1.9
ok
G0 X44.8 Y129.8 Z2.0
ok
G0 Z20.0
ok
G0 F3000.0 X47.9 Y75.9
ok
G0 F9132.0 Z1.9
ok
G0 X48.9 Y129.8 Z2.1
ok
G0 Z20.0
ok
G0 F3000.0 X52.0 Y75.9
ok
G0 F8178.0 Z2.0
ok
G0 X53.0 Y129.7 Z2.1
ok
G0 Z20.0
ok
G0 F3000.0 X56.1 Y75.8
ok
G0 F7224.0 Z2.1
ok
G0 X57.1 Y129.7 Z2.2
ok
G0 Z20.0
ok
G0 F3000.0 X60.2 Y75.8
ok
G0 F6270.0 Z2.1
ok
G0 X61.2 Y129.7 Z2.3
ok
G0 Z20.0
ok
G0 F3000.0 X64.3 Y75.8
ok
G0 F5316.0 Z2.6
ok
G0 X65.3 Y129.6 Z2.7
ok
G0 Z20.0
ok
G0 F3000.0 X68.4 Y75.7
ok
G0 F4362.0 Z2.6
ok
G0 X69.4 Y129.6 Z2.7
ok
G0 Z20.0
ok
G0 F3000.0 X72.5 Y75.7
ok
G0 F3408.0 Z2.6
ok
G0 X73.5 Y129.5 Z2.7
ok
G0 Z20.0
ok
G0 F3000.0 X76.7 Y75.7
ok
G0 F2454.0 Z2.6
ok
G0 X77.6 Y129.5 Z2.7
ok
G0 Z20.0
ok
G0 F3000.0 X80.8 Y75.6
ok
G0 F1500.0 Z2.6
ok
G0 X81.7 Y129.4 Z2.7
ok
G0 Z20.0
ok
G0 F3000.0 Z20.0
ok
M400
ok
Heating up to 165C
M109 R165
T:156.5 E:0 W:?
T:157.1 E:0 W:?
T:158.1 E:0 W:?
T:158.9 E:0 W:?
T:160.0 E:0 W:?
T:161.2 E:0 W:?
T:162.5 E:0 W:?
T:163.8 E:0 W:?
T:165.0 E:0 W:9
T:166.6 E:0 W:8
T:168.1 E:0 W:7
T:169.2 E:0 W:9
T:170.5 E:0 W:9
T:171.8 E:0 W:9
T:172.8 E:0 W:9
T:173.7 E:0 W:9
T:174.2 E:0 W:9
T:174.4 E:0 W:9
T:175.0 E:0 W:9
T:175.0 E:0 W:9
T:174.8 E:0 W:9
T:174.8 E:0 W:9
T:174.5 E:0 W:9
T:174.3 E:0 W:9
T:173.9 E:0 W:9
T:173.7 E:0 W:9
T:173.3 E:0 W:9
T:172.5 E:0 W:9
T:172.5 E:0 W:9
T:171.5 E:0 W:9
T:171.1 E:0 W:9
T:170.4 E:0 W:9
T:169.8 E:0 W:9
T:169.2 E:0 W:9
T:168.8 E:0 W:9
T:168.1 E:0 W:8
T:167.4 E:0 W:7
T:167.0 E:0 W:6
T:166.4 E:0 W:5
T:165.8 E:0 W:4
T:165.1 E:0 W:2
T:164.5 E:0 W:1
T:163.8 E:0 W:0
ok
G0 F3000.0 X87.6 Y75.6
ok
G0 F11994.0 Z2.6
ok
G0 X88.5 Y129.4 Z2.7
ok
G0 Z20.0
ok
G0 F3000.0 X91.7 Y75.5
ok
G0 F11040.0 Z2.6
ok
G0 X92.6 Y129.3 Z2.7
ok
G0 Z20.0
ok
G0 F3000.0 X95.8 Y75.5
ok
G0 F10086.0 Z2.6
ok
G0 X96.7 Y129.3 Z2.7
ok
G0 Z20.0
ok
G0 F3000.0 X100.0 Y75.5
ok
G0 F9132.0 Z2.6
ok
G0 X100.8 Y129.2 Z2.7
ok
G0 Z20.0
ok
G0 F3000.0 X104.1 Y75.4
ok
G0 F8178.0 Z2.6
ok
G0 X104.9 Y129.2 Z2.7
ok
G0 Z20.0
ok
G0 F3000.0 X108.2 Y75.4
ok
G0 F7224.0 Z2.6
ok
G0 X109.0 Y129.2 Z2.7
ok
G0 Z20.0
ok
G0 F3000.0 X112.3 Y75.4
ok
G0 F6270.0 Z2.9
ok
G0 X113.1 Y129.1 Z2.9
ok
G0 Z20.0
ok
G0 F3000.0 X116.4 Y75.3
ok
G0 F5316.0 Z2.9
ok
G0 X117.2 Y129.1 Z2.9
ok
G0 Z20.0
ok
G0 F3000.0 X120.5 Y75.3
ok
G0 F4362.0 Z2.8
ok
G0 X121.3 Y129.0 Z2.8
ok
G0 Z20.0
ok
G0 F3000.0 X124.6 Y75.3
ok
G0 F3408.0 Z2.7
ok
G0 X125.4 Y129.0 Z2.7
ok
G0 Z20.0
ok
G0 F3000.0 X128.7 Y75.2
ok
G0 F2454.0 Z2.6
ok
G0 X129.5 Y128.9 Z2.7
ok
G0 Z20.0
ok
G0 F3000.0 X132.9 Y75.2
ok
G0 F1500.0 Z2.5
ok
G0 X133.6 Y128.9 Z2.6
ok
G0 Z20.0
ok
G0 F3000.0 Z20.0
ok
M400
ok
Heating up to 170C
M109 R170
T:159.5 E:0 W:?
T:159.6 E:0 W:?
T:159.9 E:0 W:?
T:160.5 E:0 W:?
T:160.9 E:0 W:?
T:161.8 E:0 W:?
T:162.6 E:0 W:?
T:163.8 E:0 W:?
T:164.8 E:0 W:?
T:166.1 E:0 W:?
T:167.3 E:0 W:?
T:168.5 E:0 W:?
T:169.8 E:0 W:9
T:171.3 E:0 W:8
T:172.9 E:0 W:7
T:174.1 E:0 W:9
T:175.1 E:0 W:9
T:176.1 E:0 W:9
T:176.8 E:0 W:9
T:177.6 E:0 W:9
T:177.8 E:0 W:9
T:178.0 E:0 W:9
T:178.0 E:0 W:9
T:178.3 E:0 W:9
T:177.9 E:0 W:9
T:177.6 E:0 W:9
T:177.6 E:0 W:9
T:177.1 E:0 W:9
T:176.8 E:0 W:9
T:176.3 E:0 W:9
T:175.9 E:0 W:9
T:175.3 E:0 W:9
T:174.8 E:0 W:9
T:174.5 E:0 W:9
T:173.8 E:0 W:9
T:173.5 E:0 W:8
T:173.0 E:0 W:7
T:172.2 E:0 W:6
T:171.6 E:0 W:5
T:170.9 E:0 W:4
T:170.3 E:0 W:3
T:169.7 E:0 W:2
T:169.3 E:0 W:1
T:168.8 E:0 W:0
ok
G0 F3000.0 X139.7 Y75.1
ok
G0 F11994.0 Z2.4
ok
G0 X140.4 Y128.8 Z2.5
ok
G0 Z20.0
ok
G0 F3000.0 X143.8 Y75.1
ok
G0 F11040.0 Z2.3
ok
G0 X144.5 Y128.8 Z2.4
ok
G0 Z20.0
ok
G0 F3000.0 X147.9 Y75.0
ok
G0 F10086.0 Z2.3
ok
G0 X148.6 Y128.7 Z2.3
ok
G0 Z20.0
ok
G0 F3000.0 X152.1 Y75.0
ok
G0 F9132.0 Z2.2
ok
G0 X152.7 Y128.7 Z2.3
ok
G0 Z20.0
ok
G0 F3000.0 X156.2 Y75.0
ok
G0 F8178.0 Z2.1
ok
G0 X156.8 Y128.6 Z2.2
ok
G0 Z20.0
ok
G0 F3000.0 X160.3 Y74.9
ok
G0 F7224.0 Z2.0
ok
G0 X160.9 Y128.6 Z2.1
ok
G0 Z20.0
ok
G0 F3000.0 X164.4 Y74.9
ok
G0 F6270.0 Z2.0
ok
G0 X165.0 Y128.6 Z2.0
ok
G0 Z20.0
ok
G0 F3000.0 X168.5 Y74.9
ok
G0 F5316.0 Z1.9
ok
G0 X169.1 Y128.5 Z2.0
ok
G0 Z20.0
ok
G0 F3000.0 X172.6 Y74.8
ok
G0 F4362.0 Z1.8
ok
G0 X173.2 Y128.5 Z1.9
ok
G0 Z20.0
ok
G0 F3000.0 X176.7 Y74.8
ok
G0 F3408.0 Z1.7
ok
G0 X177.3 Y128.4 Z1.8
ok
G0 Z20.0
ok
G0 F3000.0 X180.8 Y74.8
ok
G0 F2454.0 Z1.7
ok
G0 X181.4 Y128.4 Z1.7
ok
G0 Z20.0
ok
G0 F3000.0 X185.0 Y74.7
ok
G0 F1500.0 Z1.6
ok
G0 X185.5 Y128.3 Z1.7
ok
G0 Z20.0
ok
G0 F3000.0 Z20.0
ok
M400
ok
Heating up to 175C
M109 R175
T:165.6 E:0 W:?
T:166.1 E:0 W:?
T:167.2 E:0 W:?
T:167.7 E:0 W:?
T:168.7 E:0 W:?
T:170.0 E:0 W:?
T:171.0 E:0 W:?
T:172.1 E:0 W:?
T:173.7 E:0 W:?
T:175.2 E:0 W:9
T:176.6 E:0 W:8
T:177.9 E:0 W:6
T:179.0 E:0 W:9
T:180.0 E:0 W:9
T:181.2 E:0 W:9
T:181.5 E:0 W:9
T:182.3 E:0 W:9
T:182.6 E:0 W:9
T:182.3 E:0 W:9
T:182.6 E:0 W:9
T:182.4 E:0 W:9
T:182.5 E:0 W:9
T:182.2 E:0 W:9
T:181.9 E:0 W:9
T:181.9 E:0 W:9
T:181.4 E:0 W:9
T:181.1 E:0 W:9
T:180.4 E:0 W:9
T:179.7 E:0 W:9
T:179.6 E:0 W:9
T:179.0 E:0 W:9
T:178.1 E:0 W:8
T:177.7 E:0 W:7
T:177.5 E:0 W:6
T:176.5 E:0 W:5
T:175.7 E:0 W:4
T:175.2 E:0 W:3
T:174.7 E:0 W:2
T:174.1 E:0 W:1
T:173.4 E:0 W:0
ok
G0 F3000.0 X36.8 Y140.7
ok
G0 F11994.0 Z1.9
ok
G0 X37.9 Y194.6 Z2.1
ok
G0 Z20.0
ok
G0 F3000.0 X40.9 Y140.6
ok
G0 F11040.0 Z2.0
ok
G0 X42.0 Y194.5 Z2.1
ok
G0 Z20.0
ok
G0 F3000.0 X45.0 Y140.6
ok
G0 F10086.0 Z2.0
ok
G0 X46.1 Y194.5 Z2.0
ok
G0 Z20.0
ok
G0 F3000.0 X49.1 Y140.6
ok
G0 F9132.0 Z2.1
ok
G0 X50.2 Y194.4 Z2.0
ok
G0 Z20.0
ok
G0 F3000.0 X53.2 Y140.5
ok
G0 F8178.0 Z2.2
ok
G0 X54.3 Y194.4 Z2.0
ok
G0 Z20.0
ok
G0 F3000.0 X57.3 Y140.5
ok
G0 F7224.0 Z2.2
ok
G0 X58.4 Y194.3 Z2.0
ok
G0 Z20.0
ok
G0 F3000.0 X61.4 Y140.4
ok
G0 F6270.0 Z2.6
ok
G0 X62.4 Y194.3 Z2.0
ok
G0 Z20.0
ok
G0 F3000.0 X65.5 Y140.4
ok
G0 F5316.0 Z2.6
ok
G0 X66.5 Y194.2 Z2.0
ok
G0 Z20.0
ok
G0 F3000.0 X69.6 Y140.3
ok
G0 F4362.0 Z2.6
ok
G0 X70.6 Y194.2 Z2.0
ok
G0 Z20.0
ok
G0 F3000.0 X73.7 Y140.3
ok
G0 F3408.0 Z2.6
ok
G0 X74.7 Y194.1 Z2.0
ok
G0 Z20.0
ok
G0 F3000.0 X77.8 Y140.2
ok
G0 F2454.0 Z2.6
ok
G0 X78.8 Y194.1 Z2.0
ok
G0 Z20.0
ok
G0 F3000.0 X81.9 Y140.2
ok
G0 F1500.0 Z2.6
ok
G0 X82.8 Y194.0 Z2.0
ok
G0 Z20.0
ok
G0 F3000.0 Z20.0
ok
M400
ok
Heating up to 180C
M109 R180
T:170.3 E:0 W:?
T:171.3 E:0 W:?
T:172.0 E:0 W:?
T:172.8 E:0 W:?
T:174.2 E:0 W:?
T:175.4 E:0 W:?
T:176.3 E:0 W:?
T:178.0 E:0 W:?
T:179.1 E:0 W:9
T:180.5 E:0 W:8
T:182.2 E:0 W:7
T:183.5 E:0 W:6
T:184.6 E:0 W:9
T:185.2 E:0 W:9
T:186.2 E:0 W:9
T:186.7 E:0 W:9
T:187.5 E:0 W:9
T:187.9 E:0 W:9
T:187.9 E:0 W:9
T:187.9 E:0 W:9
T:187.6 E:0 W:9
T:187.3 E:0 W:9
T:187.1 E:0 W:9
T:186.8 E:0 W:9
T:186.6 E:0 W:9
T:185.9 E:0 W:9
T:185.0 E:0 W:9
T:184.8 E:0 W:9
T:183.9 E:0 W:9
T:183.5 E:0 W:9
T:183.1 E:0 W:8
T:182.5 E:0 W:7
T:181.7 E:0 W:6
T:181.0 E:0 W:4
T:180.3 E:0 W:3
T:179.7 E:0 W:2
T:179.2 E:0 W:1
T:178.6 E:0 W:0
ok
G0 F3000.0 X88.7 Y140.1
ok
G0 F11994.0 Z2.6
ok
G0 X89.6 Y193.9 Z2.0
ok
G0 Z20.0
ok
G0 F3000.0 X92.8 Y140.1
ok
G0 F11040.0 Z2.6
ok
G0 X93.7 Y193.9 Z2.0
ok
G0 Z20.0
ok
G0 F3000.0 X96.9 Y140.0
ok
G0 F10086.0 Z2.6
ok
G0 X97.8 Y193.8 Z1.9
ok
G0 Z20.0
ok
G0 F3000.0 X101.0 Y140.0
ok
G0 F9132.0 Z2.6
ok
G0 X101.9 Y193.8 Z1.9
ok
G0 Z20.0
ok
G0 F3000.0 X105.1 Y139.9
ok
G0 F8178.0 Z2.6
ok
G0 X106.0 Y193.7 Z1.9
ok
G0 Z20.0
ok
G0 F3000.0 X109.2 Y139.9
ok
G0 F7224.0 Z2.6
ok
G0 X110.0 Y193.7 Z1.9
ok
G0 Z20.0
ok
G0 F3000.0 X113.3 Y139.9
ok
G0 F6270.0 Z2.9
ok
G0 X114.1 Y193.6 Z2.8
ok
G0 Z20.0
ok
G0 F3000.0 X117.4 Y139.8
ok
G0 F5316.0 Z2.9
ok
G0 X118.2 Y193.6 Z2.8
ok
G0 Z20.0
ok
G0 F3000.0 X121.5 Y139.8
ok
G0 F4362.0 Z2.8
ok
G0 X122.3 Y193.5 Z2.7
ok
G0 Z20.0
ok
G0 F3000.0 X125.6 Y139.7
ok
G0 F3408.0 Z2.7
ok
G0 X126.4 Y193.4 Z2.6
ok
G0 Z20.0
ok
G0 F3000.0 X129.7 Y139.7
ok
G0 F2454.0 Z2.7
ok
G0 X130.4 Y193.4 Z2.6
ok
G0 Z20.0
ok
G0 F3000.0 X133.8 Y139.6
ok
G0 F1500.0 Z2.6
ok
G0 X134.5 Y193.3 Z2.5
ok
G0 Z20.0
ok
G0 F3000.0 Z20.0
ok
M400
ok
Heating up to 185C
M109 R185
T:173.9 E:0 W:?
T:174.5 E:0 W:?
T:174.6 E:0 W:?
T:175.5 E:0 W:?
T:176.5 E:0 W:?
T:177.5 E:0 W:?
T:178.3 E:0 W:?
T:179.1 E:0 W:?
T:180.3 E:0 W:?
T:182.1 E:0 W:?
T:183.6 E:0 W:?
T:184.7 E:0 W:9
T:186.3 E:0 W:8
T:187.6 E:0 W:7
T:189.1 E:0 W:9
T:190.0 E:0 W:9
T:190.5 E:0 W:9
T:191.8 E:0 W:9
T:192.2 E:0 W:9
T:192.6 E:0 W:9
T:192.2 E:0 W:9
T:192.7 E:0 W:9
T:192.7 E:0 W:9
T:192.3 E:0 W:9
T:191.8 E:0 W:9
T:191.3 E:0 W:9
T:191.2 E:0 W:9
T:190.6 E:0 W:9
T:190.5 E:0 W:9
T:189.9 E:0 W:9
T:189.1 E:0 W:9
T:188.8 E:0 W:9
T:187.9 E:0 W:8
T:187.1 E:0 W:7
T:186.7 E:0 W:6
T:186.0 E:0 W:5
T:185.5 E:0 W:4
T:184.6 E:0 W:3
T:184.2 E:0 W:2
T:183.6 E:0 W:1
T:182.6 E:0 W:0
ok
G0 F3000.0 X140.6 Y139.6
ok
G0 F11994.0 Z2.5
ok
G0 X141.3 Y193.3 Z2.4
ok
G0 Z20.0
ok
G0 F3000.0 X144.7 Y139.5
ok
G0 F11040.0 Z2.4
ok
G0 X145.4 Y193.2 Z2.4
ok
G0 Z20.0
ok
G0 F3000.0 X148.8 Y139.5
ok
G0 F10086.0 Z2.4
ok
G0 X149.5 Y193.2 Z2.3
ok
G0 Z20.0
ok
G0 F3000.0 X152.9 Y139.4
ok
G0 F9132.0 Z2.3
ok
G0 X153.6 Y193.1 Z2.2
ok
G0 Z20.0
ok
G0 F3000.0 X157.0 Y139.4
ok
G0 F8178.0 Z2.2
ok
G0 X157.6 Y193.0 Z2.2
ok
G0 Z20.0
ok
G0 F3000.0 X161.1 Y139.3
ok
G0 F7224.0 Z2.1
ok
G0 X161.7 Y193.0 Z2.1
ok
G0 Z20.0
ok
G0 F3000.0 X165.2 Y139.3
ok
G0 F6270.0 Z2.1
ok
G0 X165.8 Y192.9 Z2.1
ok
G0 Z20.0
ok
G0 F3000.0 X169.3 Y139.2
ok
G0 F5316.0 Z2.0
ok
G0 X169.9 Y192.9 Z2.0
ok
G0 Z20.0
ok
G0 F3000.0 X173.4 Y139.2
ok
G0 F4362.0 Z1.9
ok
G0 X174.0 Y192.8 Z1.9
ok
G0 Z20.0
ok
G0 F3000.0 X177.4 Y139.2
ok
G0 F3408.0 Z1.8
ok
G0 X178.0 Y192.8 Z1.9
ok
G0 Z20.0
ok
G0 F3000.0 X181.5 Y139.1
ok
G0 F2454.0 Z1.8
ok
G0 X182.1 Y192.7 Z1.8
ok
G0 Z20.0
ok
G0 F3000.0 X185.6 Y139.1
ok
G0 F1500.0 Z1.7
ok
G0 X186.2 Y192.7 Z1.8
ok
G0 Z20.0
ok
M104 S0
ok
Closing connection
